ocio2-v01-lin_sRGB-BUCK/LUTs/softRolloff_v03_ocioLogLin_linLog_1Dlog.cube
TITLE "Generated by Foundry::LUT"
LUT_3D_SIZE 32
-0.002976 -0.002976 -0.002976
0.030599 -0.002976 -0.002976
0.064174 -0.002976 -0.002976
0.097749 -0.002976 -0.002976
0.131323 -0.002976 -0.002976
0.164584 -0.002976 -0.002976
0.196842 -0.002976 -0.002976
0.229098 -0.002976 -0.002976
0.261350 -0.002976 -0.002976
0.293597 -0.002976 -0.002976
0.325830 -0.002976 -0.002976
0.358032 -0.002976 -0.002976
0.390171 -0.002976 -0.002976
0.422166 -0.002976 -0.002976
0.453847 -0.002976 -0.002976
0.484826 -0.002976 -0.002976
0.514135 -0.002976 -0.002976
0.537581 -0.002976 -0.002976
0.548627 -0.002976 -0.002976
0.560855 -0.002976 -0.002976
0.576155 -0.002976 -0.002976
0.594587 -0.002976 -0.002976
0.615983 -0.002976 -0.002976
0.639996 -0.002976 -0.002976
0.666172 -0.002976 -0.002976
0.694051 -0.002976 -0.002976
0.723210 -0.002976 -0.002976
0.753306 -0.002976 -0.002976
0.784070 -0.002976 -0.002976
0.815302 -0.002976 -0.002976
0.846861 -0.002976 -0.002976
0.878642 -0.002976 -0.002976
-0.002976 0.030599 -0.002976
0.030599 0.030599 -0.002976
0.064174 0.030599 -0.002976
0.097749 0.030599 -0.002976
0.131323 0.030599 -0.002976
0.164584 0.030599 -0.002976
0.196842 0.030599 -0.002976
0.229098 0.030599 -0.002976
0.261350 0.030599 -0.002976
0.293597 0.030599 -0.002976
0.325830 0.030599 -0.002976
0.358032 0.030599 -0.002976
0.390171 0.030599 -0.002976
0.422166 0.030599 -0.002976
0.453847 0.030599 -0.002976
0.484826 0.030599 -0.002976
0.514135 0.030599 -0.002976
0.537581 0.030599 -0.002976
0.548627 0.030599 -0.002976
0.560855 0.030599 -0.002976
0.576155 0.030599 -0.002976
0.594587 0.030599 -0.002976
0.615983 0.030599 -0.002976
0.639996 0.030599 -0.002976
0.666172 0.030599 -0.002976
0.694051 0.030599 -0.002976
0.723210 0.030599 -0.002976
0.753306 0.030599 -0.002976
0.784070 0.030599 -0.002976
0.815302 0.030599 -0.002976
0.846861 0.030599 -0.002976
0.878642 0.030599 -0.002976
-0.002976 0.064174 -0.002976
0.030599 0.064174 -0.002976
0.064174 0.064174 -0.002976
0.097749 0.064174 -0.002976
0.131323 0.064174 -0.002976
0.164584 0.064174 -0.002976
0.196842 0.064174 -0.002976
0.229098 0.064174 -0.002976
0.261350 0.064174 -0.002976
0.293597 0.064174 -0.002976
0.325830 0.064174 -0.002976
0.358032 0.064174 -0.002976
0.390171 0.064174 -0.002976
0.422166 0.064174 -0.002976
0.453847 0.064174 -0.002976
0.484826 0.064174 -0.002976
0.514135 0.064174 -0.002976
0.537581 0.064174 -0.002976
0.548627 0.064174 -0.002976
0.560855 0.064174 -0.002976
0.576155 0.064174 -0.002976
0.594587 0.064174 -0.002976
0.615983 0.064174 -0.002976
0.639996 0.064174 -0.002976
0.666172 0.064174 -0.002976
0.694051 0.064174 -0.002976
0.723210 0.064174 -0.002976
0.753306 0.064174 -0.002976
0.784070 0.064174 -0.002976
0.815302 0.064174 -0.002976
0.846861 0.064174 -0.002976
0.878642 0.064174 -0.002976
-0.002976 0.097749 -0.002976
0.030599 0.097749 -0.002976
0.064174 0.097749 -0.002976
0.097749 0.097749 -0.002976
0.131323 0.097749 -0.002976
0.164584 0.097749 -0.002976
0.196842 0.097749 -0.002976
0.229098 0.097749 -0.002976
0.261350 0.097749 -0.002976
0.293597 0.097749 -0.002976
0.325830 0.097749 -0.002976
0.358032 0.097749 -0.002976
0.390171 0.097749 -0.002976
0.422166 0.097749 -0.002976
0.453847 0.097749 -0.002976
0.484826 0.097749 -0.002976
0.514135 0.097749 -0.002976
0.537581 0.097749 -0.002976
0.548627 0.097749 -0.002976
0.560855 0.097749 -0.002976
0.576155 0.097749 -0.002976
0.594587 0.097749 -0.002976
0.615983 0.097749 -0.002976
0.639996 0.097749 -0.002976
0.666172 0.097749 -0.002976
0.694051 0.097749 -0.002976
0.723210 0.097749 -0.002976
0.753306 0.097749 -0.002976
0.784070 0.097749 -0.002976
0.815302 0.097749 -0.002976
0.846861 0.097749 -0.002976
0.878642 0.097749 -0.002976
-0.002976 0.131323 -0.002976
0.030599 0.131323 -0.002976
0.064174 0.131323 -0.002976
0.097749 0.131323 -0.002976
0.131323 0.131323 -0.002976
0.164584 0.131323 -0.002976
0.196842 0.131323 -0.002976
0.229098 0.131323 -0.002976
0.261350 0.131323 -0.002976
0.293597 0.131323 -0.002976
0.325830 0.131323 -0.002976
0.358032 0.131323 -0.002976
0.390171 0.131323 -0.002976
0.422166 0.131323 -0.002976
0.453847 0.131323 -0.002976
0.484826 0.131323 -0.002976
0.514135 0.131323 -0.002976
0.537581 0.131323 -0.002976
0.548627 0.131323 -0.002976
0.560855 0.131323 -0.002976
0.576155 0.131323 -0.002976
0.594587 0.131323 -0.002976
0.615983 0.131323 -0.002976
0.639996 0.131323 -0.002976
0.666172 0.131323 -0.002976
0.694051 0.131323 -0.002976
0.723210 0.131323 -0.002976
0.753306 0.131323 -0.002976
0.784070 0.131323 -0.002976
0.815302 0.131323 -0.002976
0.846861 0.131323 -0.002976
0.878642 0.131323 -0.002976
-0.002976 0.164584 -0.002976
0.030599 0.164584 -0.002976
0.064174 0.164584 -0.002976
0.097749 0.164584 -0.002976
0.131323 0.164584 -0.002976
0.164584 0.164584 -0.002976
0.196842 0.164584 -0.002976
0.229098 0.164584 -0.002976
0.261350 0.164584 -0.002976
0.293597 0.164584 -0.002976
0.325830 0.164584 -0.002976
0.358032 0.164584 -0.002976
0.390171 0.164584 -0.002976
0.422166 0.164584 -0.002976
0.453847 0.164584 -0.002976
0.484826 0.164584 -0.002976
0.514135 0.164584 -0.002976
0.537581 0.164584 -0.002976
0.548627 0.164584 -0.002976
0.560855 0.164584 -0.002976
0.576155 0.164584 -0.002976
0.594587 0.164584 -0.002976
0.615983 0.164584 -0.002976
0.639996 0.164584 -0.002976
0.666172 0.164584 -0.002976
0.694051 0.164584 -0.002976
0.723210 0.164584 -0.002976
0.753306 0.164584 -0.002976
0.784070 0.164584 -0.002976
0.815302 0.164584 -0.002976
0.846861 0.164584 -0.002976
0.878642 0.164584 -0.002976
-0.002976 0.196842 -0.002976
0.030599 0.196842 -0.002976
0.064174 0.196842 -0.002976
0.097749 0.196842 -0.002976
0.131323 0.196842 -0.002976
0.164584 0.196842 -0.002976
0.196842 0.196842 -0.002976
0.229098 0.196842 -0.002976
0.261350 0.196842 -0.002976
0.293597 0.196842 -0.002976
0.325830 0.196842 -0.002976
0.358032 0.196842 -0.002976
0.390171 0.196842 -0.002976
0.422166 0.196842 -0.002976
0.453847 0.196842 -0.002976
0.484826 0.196842 -0.002976
0.514135 0.196842 -0.002976
0.537581 0.196842 -0.002976
0.548627 0.196842 -0.002976
0.560855 0.196842 -0.002976
0.576155 0.196842 -0.002976
0.594587 0.196842 -0.002976
0.615983 0.196842 -0.002976
0.639996 0.196842 -0.002976
0.666172 0.196842 -0.002976
0.694051 0.196842 -0.002976
0.723210 0.196842 -0.002976
0.753306 0.196842 -0.002976
0.784070 0.196842 -0.002976
0.815302 0.196842 -0.002976
0.846861 0.196842 -0.002976
0.878642 0.196842 -0.002976
-0.002976 0.229098 -0.002976
0.030599 0.229098 -0.002976
0.064174 0.229098 -0.002976
0.097749 0.229098 -0.002976
0.131323 0.229098 -0.002976
0.164584 0.229098 -0.002976
0.196842 0.229098 -0.002976
0.229098 0.229098 -0.002976
0.261350 0.229098 -0.002976
0.293597 0.229098 -0.002976
0.325830 0.229098 -0.002976
0.358032 0.229098 -0.002976
0.390171 0.229098 -0.002976
0.422166 0.229098 -0.002976
0.453847 0.229098 -0.002976
0.484826 0.229098 -0.002976
0.514135 0.229098 -0.002976
0.537581 0.229098 -0.002976
0.548627 0.229098 -0.002976
0.560855 0.229098 -0.002976
0.576155 0.229098 -0.002976
0.594587 0.229098 -0.002976
0.615983 0.229098 -0.002976
0.639996 0.229098 -0.002976
0.666172 0.229098 -0.002976
0.694051 0.229098 -0.002976
0.723210 0.229098 -0.002976
0.753306 0.229098 -0.002976
0.784070 0.229098 -0.002976
0.815302 0.229098 -0.002976
0.846861 0.229098 -0.002976
0.878642 0.229098 -0.002976
-0.002976 0.261350 -0.002976
0.030599 0.261350 -0.002976
0.064174 0.261350 -0.002976
0.097749 0.261350 -0.002976
0.131323 0.261350 -0.002976
0.164584 0.261350 -0.002976
0.196842 0.261350 -0.002976
0.229098 0.261350 -0.002976
0.261350 0.261350 -0.002976
0.293597 0.261350 -0.002976
0.325830 0.261350 -0.002976
0.358032 0.261350 -0.002976
0.390171 0.261350 -0.002976
0.422166 0.261350 -0.002976
0.453847 0.261350 -0.002976
0.484826 0.261350 -0.002976
0.514135 0.261350 -0.002976
0.537581 0.261350 -0.002976
0.548627 0.261350 -0.002976
0.560855 0.261350 -0.002976
0.576155 0.261350 -0.002976
0.594587 0.261350 -0.002976
0.615983 0.261350 -0.002976
0.639996 0.261350 -0.002976
0.666172 0.261350 -0.002976
0.694051 0.261350 -0.002976
0.723210 0.261350 -0.002976
0.753306 0.261350 -0.002976
0.784070 0.261350 -0.002976
0.815302 0.261350 -0.002976
0.846861 0.261350 -0.002976
0.878642 0.261350 -0.002976
-0.002976 0.293597 -0.002976
0.030599 0.293597 -0.002976
0.064174 0.293597 -0.002976
0.097749 0.293597 -0.002976
0.131323 0.293597 -0.002976
0.164584 0.293597 -0.002976
0.196842 0.293597 -0.002976
0.229098 0.293597 -0.002976
0.261350 0.293597 -0.002976
0.293597 0.293597 -0.002976
0.325830 0.293597 -0.002976
0.358032 0.293597 -0.002976
0.390171 0.293597 -0.002976
0.422166 0.293597 -0.002976
0.453847 0.293597 -0.002976
0.484826 0.293597 -0.002976
0.514135 0.293597 -0.002976
0.537581 0.293597 -0.002976
0.548627 0.293597 -0.002976
0.560855 0.293597 -0.002976
0.576155 0.293597 -0.002976
0.594587 0.293597 -0.002976
0.615983 0.293597 -0.002976
0.639996 0.293597 -0.002976
0.666172 0.293597 -0.002976
0.694051 0.293597 -0.002976
0.723210 0.293597 -0.002976
0.753306 0.293597 -0.002976
0.784070 0.293597 -0.002976
0.815302 0.293597 -0.002976
0.846861 0.293597 -0.002976
0.878642 0.293597 -0.002976
-0.002976 0.325830 -0.002976
0.030599 0.325830 -0.002976
0.064174 0.325830 -0.002976
0.097749 0.325830 -0.002976
0.131323 0.325830 -0.002976
0.164584 0.325830 -0.002976
0.196842 0.325830 -0.002976
0.229098 0.325830 -0.002976
0.261350 0.325830 -0.002976
0.293597 0.325830 -0.002976
0.325830 0.325830 -0.002976
0.358032 0.325830 -0.002976
0.390171 0.325830 -0.002976
0.422166 0.325830 -0.002976
0.453847 0.325830 -0.002976
0.484826 0.325830 -0.002976
0.514135 0.325830 -0.002976
0.537581 0.325830 -0.002976
0.548627 0.325830 -0.002976
0.560855 0.325830 -0.002976
0.576155 0.325830 -0.002976
0.594587 0.325830 -0.002976
0.615983 0.325830 -0.002976
0.639996 0.325830 -0.002976
0.666172 0.325830 -0.002976
0.694051 0.325830 -0.002976
0.723210 0.325830 -0.002976
0.753306 0.325830 -0.002976
0.784070 0.325830 -0.002976
0.815302 0.325830 -0.002976
0.846861 0.325830 -0.002976
0.878642 0.325830 -0.002976
-0.002976 0.358032 -0.002976
0.030599 0.358032 -0.002976
0.064174 0.358032 -0.002976
0.097749 0.358032 -0.002976
0.131323 0.358032 -0.002976
0.164584 0.358032 -0.002976
0.196842 0.358032 -0.002976
0.229098 0.358032 -0.002976
0.261350 0.358032 -0.002976
0.293597 0.358032 -0.002976
0.325830 0.358032 -0.002976
0.358032 0.358032 -0.002976
0.390171 0.358032 -0.002976
0.422166 0.358032 -0.002976
0.453847 0.358032 -0.002976
0.484826 0.358032 -0.002976
0.514135 0.358032 -0.002976
0.537581 0.358032 -0.002976
0.548627 0.358032 -0.002976
0.560855 0.358032 -0.002976
0.576155 0.358032 -0.002976
0.594587 0.358032 -0.002976
0.615983 0.358032 -0.002976
0.639996 0.358032 -0.002976
0.666172 0.358032 -0.002976
0.694051 0.358032 -0.002976
0.723210 0.358032 -0.002976
0.753306 0.358032 -0.002976
0.784070 0.358032 -0.002976
0.815302 0.358032 -0.002976
0.846861 0.358032 -0.002976
0.878642 0.358032 -0.002976
-0.002976 0.390171 -0.002976
0.030599 0.390171 -0.002976
0.064174 0.390171 -0.002976
0.097749 0.390171 -0.002976
0.131323 0.390171 -0.002976
0.164584 0.390171 -0.002976
0.196842 0.390171 -0.002976
0.229098 0.390171 -0.002976
0.261350 0.390171 -0.002976
0.293597 0.390171 -0.002976
0.325830 0.390171 -0.002976
0.358032 0.390171 -0.002976
0.390171 0.390171 -0.002976
0.422166 0.390171 -0.002976
0.453847 0.390171 -0.002976
0.484826 0.390171 -0.002976
0.514135 0.390171 -0.002976
0.537581 0.390171 -0.002976
0.548627 0.390171 -0.002976
0.560855 0.390171 -0.002976
0.576155 0.390171 -0.002976
0.594587 0.390171 -0.002976
0.615983 0.390171 -0.002976
0.639996 0.390171 -0.002976
0.666172 0.390171 -0.002976
0.694051 0.390171 -0.002976
0.723210 0.390171 -0.002976
0.753306 0.390171 -0.002976
0.784070 0.390171 -0.002976
0.815302 0.390171 -0.002976
0.846861 0.390171 -0.002976
0.878642 0.390171 -0.002976
-0.002976 0.422166 -0.002976
0.030599 0.422166 -0.002976
0.064174 0.422166 -0.002976
0.097749 0.422166 -0.002976
0.131323 0.422166 -0.002976
0.164584 0.422166 -0.002976
0.196842 0.422166 -0.002976
0.229098 0.422166 -0.002976
0.261350 0.422166 -0.002976
0.293597 0.422166 -0.002976
0.325830 0.422166 -0.002976
0.358032 0.422166 -0.002976
0.390171 0.422166 -0.002976
0.422166 0.422166 -0.002976
0.453847 0.422166 -0.002976
0.484826 0.422166 -0.002976
0.514135 0.422166 -0.002976
0.537581 0.422166 -0.002976
0.548627 0.422166 -0.002976
0.560855 0.422166 -0.002976
0.576155 0.422166 -0.002976
0.594587 0.422166 -0.002976
0.615983 0.422166 -0.002976
0.639996 0.422166 -0.002976
0.666172 0.422166 -0.002976
0.694051 0.422166 -0.002976
0.723210 0.422166 -0.002976
0.753306 0.422166 -0.002976
0.784070 0.422166 -0.002976
0.815302 0.422166 -0.002976
0.846861 0.422166 -0.002976
0.878642 0.422166 -0.002976
-0.002976 0.453847 -0.002976
0.030599 0.453847 -0.002976
0.064174 0.453847 -0.002976
0.097749 0.453847 -0.002976
0.131323 0.453847 -0.002976
0.164584 0.453847 -0.002976
0.196842 0.453847 -0.002976
0.229098 0.453847 -0.002976
0.261350 0.453847 -0.002976
0.293597 0.453847 -0.002976
0.325830 0.453847 -0.002976
0.358032 0.453847 -0.002976
0.390171 0.453847 -0.002976
0.422166 0.453847 -0.002976
0.453847 0.453847 -0.002976
0.484826 0.453847 -0.002976
0.514135 0.453847 -0.002976
0.537581 0.453847 -0.002976
0.548627 0.453847 -0.002976
0.560855 0.453847 -0.002976
0.576155 0.453847 -0.002976
0.594587 0.453847 -0.002976
0.615983 0.453847 -0.002976
0.639996 0.453847 -0.002976
0.666172 0.453847 -0.002976
0.694051 0.453847 -0.002976
0.723210 0.453847 -0.002976
0.753306 0.453847 -0.002976
0.784070 0.453847 -0.002976
0.815302 0.453847 -0.002976
0.846861 0.453847 -0.002976
0.878642 0.453847 -0.002976
-0.002976 0.484826 -0.002976
0.030599 0.484826 -0.002976
0.064174 0.484826 -0.002976
0.097749 0.484826 -0.002976
0.131323 0.484826 -0.002976
0.164584 0.484826 -0.002976
0.196842 0.484826 -0.002976
0.229098 0.484826 -0.002976
0.261350 0.484826 -0.002976
0.293597 0.484826 -0.002976
0.325830 0.484826 -0.002976
0.358032 0.484826 -0.002976
0.390171 0.484826 -0.002976
0.422166 0.484826 -0.002976
0.453847 0.484826 -0.002976
0.484826 0.484826 -0.002976
0.514135 0.484826 -0.002976
0.537581 0.484826 -0.002976
0.548627 0.484826 -0.002976
0.560855 0.484826 -0.002976
0.576155 0.484826 -0.002976
0.594587 0.484826 -0.002976
0.615983 0.484826 -0.002976
0.639996 0.484826 -0.002976
0.666172 0.484826 -0.002976
0.694051 0.484826 -0.002976
0.723210 0.484826 -0.002976
0.753306 0.484826 -0.002976
0.784070 0.484826 -0.002976
0.815302 0.484826 -0.002976
0.846861 0.484826 -0.002976
0.878642 0.484826 -0.002976
-0.002976 0.514135 -0.002976
0.030599 0.514135 -0.002976
0.064174 0.514135 -0.002976
0.097749 0.514135 -0.002976
0.131323 0.514135 -0.002976
0.164584 0.514135 -0.002976
0.196842 0.514135 -0.002976
0.229098 0.514135 -0.002976
0.261350 0.514135 -0.002976
0.293597 0.514135 -0.002976
0.325830 0.514135 -0.002976
0.358032 0.514135 -0.002976
0.390171 0.514135 -0.002976
0.422166 0.514135 -0.002976
0.453847 0.514135 -0.002976
0.484826 0.514135 -0.002976
0.514135 0.514135 -0.002976
0.537581 0.514135 -0.002976
0.548627 0.514135 -0.002976
0.560855 0.514135 -0.002976
0.576155 0.514135 -0.002976
0.594587 0.514135 -0.002976
0.615983 0.514135 -0.002976
0.639996 0.514135 -0.002976
0.666172 0.514135 -0.002976
0.694051 0.514135 -0.002976
0.723210 0.514135 -0.002976
0.753306 0.514135 -0.002976
0.784070 0.514135 -0.002976
0.815302 0.514135 -0.002976
0.846861 0.514135 -0.002976
0.878642 0.514135 -0.002976
-0.002976 0.537581 -0.002976
0.030599 0.537581 -0.002976
0.064174 0.537581 -0.002976
0.097749 0.537581 -0.002976
0.131323 0.537581 -0.002976
0.164584 0.537581 -0.002976
0.196842 0.537581 -0.002976
0.229098 0.537581 -0.002976
0.261350 0.537581 -0.002976
0.293597 0.537581 -0.002976
0.325830 0.537581 -0.002976
0.358032 0.537581 -0.002976
0.390171 0.537581 -0.002976
0.422166 0.537581 -0.002976
0.453847 0.537581 -0.002976
0.484826 0.537581 -0.002976
0.514135 0.537581 -0.002976
0.537581 0.537581 -0.002976
0.548627 0.537581 -0.002976
0.560855 0.537581 -0.002976
0.576155 0.537581 -0.002976
0.594587 0.537581 -0.002976
0.615983 0.537581 -0.002976
0.639996 0.537581 -0.002976
0.666172 0.537581 -0.002976
0.694051 0.537581 -0.002976
0.723210 0.537581 -0.002976
0.753306 0.537581 -0.002976
0.784070 0.537581 -0.002976
0.815302 0.537581 -0.002976
0.846861 0.537581 -0.002976
0.878642 0.537581 -0.002976
-0.002976 0.548627 -0.002976
0.030599 0.548627 -0.002976
0.064174 0.548627 -0.002976
0.097749 0.548627 -0.002976
0.131323 0.548627 -0.002976
0.164584 0.548627 -0.002976
0.196842 0.548627 -0.002976
0.229098 0.548627 -0.002976
0.261350 0.548627 -0.002976
0.293597 0.548627 -0.002976
0.325830 0.548627 -0.002976
0.358032 0.548627 -0.002976
0.390171 0.548627 -0.002976
0.422166 0.548627 -0.002976
0.453847 0.548627 -0.002976
0.484826 0.548627 -0.002976
0.514135 0.548627 -0.002976
0.537581 0.548627 -0.002976
0.548627 0.548627 -0.002976
0.560855 0.548627 -0.002976
0.576155 0.548627 -0.002976
0.594587 0.548627 -0.002976
0.615983 0.548627 -0.002976
0.639996 0.548627 -0.002976
0.666172 0.548627 -0.002976
0.694051 0.548627 -0.002976
0.723210 0.548627 -0.002976
0.753306 0.548627 -0.002976
0.784070 0.548627 -0.002976
0.815302 0.548627 -0.002976
0.846861 0.548627 -0.002976
0.878642 0.548627 -0.002976
-0.002976 0.560855 -0.002976
0.030599 0.560855 -0.002976
0.064174 0.560855 -0.002976
0.097749 0.560855 -0.002976
0.131323 0.560855 -0.002976
0.164584 0.560855 -0.002976
0.196842 0.560855 -0.002976
0.229098 0.560855 -0.002976
0.261350 0.560855 -0.002976
0.293597 0.560855 -0.002976
0.325830 0.560855 -0.002976
0.358032 0.560855 -0.002976
0.390171 0.560855 -0.002976
0.422166 0.560855 -0.002976
0.453847 0.560855 -0.002976
0.484826 0.560855 -0.002976
0.514135 0.560855 -0.002976
0.537581 0.560855 -0.002976
0.548627 0.560855 -0.002976
0.560855 0.560855 -0.002976
0.576155 0.560855 -0.002976
0.594587 0.560855 -0.002976
0.615983 0.560855 -0.002976
0.639996 0.560855 -0.002976
0.666172 0.560855 -0.002976
0.694051 0.560855 -0.002976
0.723210 0.560855 -0.002976
0.753306 0.560855 -0.002976
0.784070 0.560855 -0.002976
0.815302 0.560855 -0.002976
0.846861 0.560855 -0.002976
0.878642 0.560855 -0.002976
-0.002976 0.576155 -0.002976
0.030599 0.576155 -0.002976
0.064174 0.576155 -0.002976
0.097749 0.576155 -0.002976
0.131323 0.576155 -0.002976
0.164584 0.576155 -0.002976
0.196842 0.576155 -0.002976
0.229098 0.576155 -0.002976
0.261350 0.576155 -0.002976
0.293597 0.576155 -0.002976
0.325830 0.576155 -0.002976
0.358032 0.576155 -0.002976
0.390171 0.576155 -0.002976
0.422166 0.576155 -0.002976
0.453847 0.576155 -0.002976
0.484826 0.576155 -0.002976
0.514135 0.576155 -0.002976
0.537581 0.576155 -0.002976
0.548627 0.576155 -0.002976
0.560855 0.576155 -0.002976
0.576155 0.576155 -0.002976
0.594587 0.576155 -0.002976
0.615983 0.576155 -0.002976
0.639996 0.576155 -0.002976
0.666172 0.576155 -0.002976
0.694051 0.576155 -0.002976
0.723210 0.576155 -0.002976
0.753306 0.576155 -0.002976
0.784070 0.576155 -0.002976
0.815302 0.576155 -0.002976
0.846861 0.576155 -0.002976
0.878642 0.576155 -0.002976
-0.002976 0.594587 -0.002976
0.030599 0.594587 -0.002976
0.064174 0.594587 -0.002976
0.097749 0.594587 -0.002976
0.131323 0.594587 -0.002976
0.164584 0.594587 -0.002976
0.196842 0.594587 -0.002976
0.229098 0.594587 -0.002976
0.261350 0.594587 -0.002976
0.293597 0.594587 -0.002976
0.325830 0.594587 -0.002976
0.358032 0.594587 -0.002976
0.390171 0.594587 -0.002976
0.422166 0.594587 -0.002976
0.453847 0.594587 -0.002976
0.484826 0.594587 -0.002976
0.514135 0.594587 -0.002976
0.537581 0.594587 -0.002976
0.548627 0.594587 -0.002976
0.560855 0.594587 -0.002976
0.576155 0.594587 -0.002976
0.594587 0.594587 -0.002976
0.615983 0.594587 -0.002976
0.639996 0.594587 -0.002976
0.666172 0.594587 -0.002976
0.694051 0.594587 -0.002976
0.723210 0.594587 -0.002976
0.753306 0.594587 -0.002976
0.784070 0.594587 -0.002976
0.815302 0.594587 -0.002976
0.846861 0.594587 -0.002976
0.878642 0.594587 -0.002976
-0.002976 0.615983 -0.002976
0.030599 0.615983 -0.002976
0.064174 0.615983 -0.002976
0.097749 0.615983 -0.002976
0.131323 0.615983 -0.002976
0.164584 0.615983 -0.002976
0.196842 0.615983 -0.002976
0.229098 0.615983 -0.002976
0.261350 0.615983 -0.002976
0.293597 0.615983 -0.002976
0.325830 0.615983 -0.002976
0.358032 0.615983 -0.002976
0.390171 0.615983 -0.002976
0.422166 0.615983 -0.002976
0.453847 0.615983 -0.002976
0.484826 0.615983 -0.002976
0.514135 0.615983 -0.002976
0.537581 0.615983 -0.002976
0.548627 0.615983 -0.002976
0.560855 0.615983 -0.002976
0.576155 0.615983 -0.002976
0.594587 0.615983 -0.002976
0.615983 0.615983 -0.002976
0.639996 0.615983 -0.002976
0.666172 0.615983 -0.002976
0.694051 0.615983 -0.002976
0.723210 0.615983 -0.002976
0.753306 0.615983 -0.002976
0.784070 0.615983 -0.002976
0.815302 0.615983 -0.002976
0.846861 0.615983 -0.002976
0.878642 0.615983 -0.002976
-0.002976 0.639996 -0.002976
0.030599 0.639996 -0.002976
0.064174 0.639996 -0.002976
0.097749 0.639996 -0.002976
0.131323 0.639996 -0.002976
0.164584 0.639996 -0.002976
0.196842 0.639996 -0.002976
0.229098 0.639996 -0.002976
0.261350 0.639996 -0.002976
0.293597 0.639996 -0.002976
0.325830 0.639996 -0.002976
0.358032 0.639996 -0.002976
0.390171 0.639996 -0.002976
0.422166 0.639996 -0.002976
0.453847 0.639996 -0.002976
0.484826 0.639996 -0.002976
0.514135 0.639996 -0.002976
0.537581 0.639996 -0.002976
0.548627 0.639996 -0.002976
0.560855 0.639996 -0.002976
0.576155 0.639996 -0.002976
0.594587 0.639996 -0.002976
0.615983 0.639996 -0.002976
0.639996 0.639996 -0.002976
0.666172 0.639996 -0.002976
0.694051 0.639996 -0.002976
0.723210 0.639996 -0.002976
0.753306 0.639996 -0.002976
0.784070 0.639996 -0.002976
0.815302 0.639996 -0.002976
0.846861 0.639996 -0.002976
0.878642 0.639996 -0.002976
-0.002976 0.666172 -0.002976
0.030599 0.666172 -0.002976
0.064174 0.666172 -0.002976
0.097749 0.666172 -0.002976
0.131323 0.666172 -0.002976
0.164584 0.666172 -0.002976
0.196842 0.666172 -0.002976
0.229098 0.666172 -0.002976
0.261350 0.666172 -0.002976
0.293597 0.666172 -0.002976
0.325830 0.666172 -0.002976
0.358032 0.666172 -0.002976
0.390171 0.666172 -0.002976
0.422166 0.666172 -0.002976
0.453847 0.666172 -0.002976
0.484826 0.666172 -0.002976
0.514135 0.666172 -0.002976
0.537581 0.666172 -0.002976
0.548627 0.666172 -0.002976
0.560855 0.666172 -0.002976
0.576155 0.666172 -0.002976
0.594587 0.666172 -0.002976
0.615983 0.666172 -0.002976
0.639996 0.666172 -0.002976
0.666172 0.666172 -0.002976
0.694051 0.666172 -0.002976
0.723210 0.666172 -0.002976
0.753306 0.666172 -0.002976
0.784070 0.666172 -0.002976
0.815302 0.666172 -0.002976
0.846861 0.666172 -0.002976
0.878642 0.666172 -0.002976
-0.002976 0.694051 -0.002976
0.030599 0.694051 -0.002976
0.064174 0.694051 -0.002976
0.097749 0.694051 -0.002976
0.131323 0.694051 -0.002976
0.164584 0.694051 -0.002976
0.196842 0.694051 -0.002976
0.229098 0.694051 -0.002976
0.261350 0.694051 -0.002976
0.293597 0.694051 -0.002976
0.325830 0.694051 -0.002976
0.358032 0.694051 -0.002976
0.390171 0.694051 -0.002976
0.422166 0.694051 -0.002976
0.453847 0.694051 -0.002976
0.484826 0.694051 -0.002976
0.514135 0.694051 -0.002976
0.537581 0.694051 -0.002976
0.548627 0.694051 -0.002976
0.560855 0.694051 -0.002976
0.576155 0.694051 -0.002976
0.594587 0.694051 -0.002976
0.615983 0.694051 -0.002976
0.639996 0.694051 -0.002976
0.666172 0.694051 -0.002976
0.694051 0.694051 -0.002976
0.723210 0.694051 -0.002976
0.753306 0.694051 -0.002976
0.784070 0.694051 -0.002976
0.815302 0.694051 -0.002976
0.846861 0.694051 -0.002976
0.878642 0.694051 -0.002976
-0.002976 0.723210 -0.002976
0.030599 0.723210 -0.002976
0.064174 0.723210 -0.002976
0.097749 0.723210 -0.002976
0.131323 0.723210 -0.002976
0.164584 0.723210 -0.002976
0.196842 0.723210 -0.002976
0.229098 0.723210 -0.002976
0.261350 0.723210 -0.002976
0.293597 0.723210 -0.002976
0.325830 0.723210 -0.002976
0.358032 0.723210 -0.002976
0.390171 0.723210 -0.002976
0.422166 0.723210 -0.002976
0.453847 0.723210 -0.002976
0.484826 0.723210 -0.002976
0.514135 0.723210 -0.002976
0.537581 0.723210 -0.002976
0.548627 0.723210 -0.002976
0.560855 0.723210 -0.002976
0.576155 0.723210 -0.002976
