ocio2-v01-lin_sRGB-BUCK/LUTs/softRolloff_v03_ocioLogLin_linLog_1Dlog.cube
TITLE "Generated by Foundry::LUT"
LUT_3D_SIZE 8
DOMAIN_MIN 0.000000 0.000000 0.000000
DOMAIN_MAX 0.903226 0.903226 0.903226
-0.002976 -0.002976 -0.002976
0.131323 -0.002976 -0.002976
0.261350 -0.002976 -0.002976
0.390171 -0.002976 -0.002976
0.514135 -0.002976 -0.002976
0.576155 -0.002976 -0.002976
0.666172 -0.002976 -0.002976
0.784070 -0.002976 -0.002976
-0.002976 0.131323 -0.002976
0.131323 0.131323 -0.002976
0.261350 0.131323 -0.002976
0.390171 0.131323 -0.002976
0.514135 0.131323 -0.002976
0.576155 0.131323 -0.002976
0.666172 0.131323 -0.002976
0.784070 0.131323 -0.002976
-0.002976 0.261350 -0.002976
0.131323 0.261350 -0.002976
0.261350 0.261350 -0.002976
0.390171 0.261350 -0.002976
0.514135 0.261350 -0.002976
0.576155 0.261350 -0.002976
0.666172 0.261350 -0.002976
0.784070 0.261350 -0.002976
-0.002976 0.390171 -0.002976
0.131323 0.390171 -0.002976
0.261350 0.390171 -0.002976
0.390171 0.390171 -0.002976
0.514135 0.390171 -0.002976
0.576155 0.390171 -0.002976
0.666172 0.390171 -0.002976
0.784070 0.390171 -0.002976
-0.002976 0.514135 -0.002976
0.131323 0.514135 -0.002976
0.261350 0.514135 -0.002976
0.390171 0.514135 -0.002976
0.514135 0.514135 -0.002976
0.576155 0.514135 -0.002976
0.666172 0.514135 -0.002976
0.784070 0.514135 -0.002976
-0.002976 0.576155 -0.002976
0.131323 0.576155 -0.002976
0.261350 0.576155 -0.002976
0.390171 0.576155 -0.002976
0.514135 0.576155 -0.002976
0.576155 0.576155 -0.002976
0.666172 0.576155 -0.002976
0.784070 0.576155 -0.002976
-0.002976 0.666172 -0.002976
0.131323 0.666172 -0.002976
0.261350 0.666172 -0.002976
0.390171 0.666172 -0.002976
0.514135 0.666172 -0.002976
0.576155 0.666172 -0.002976
0.666172 0.666172 -0.002976
0.784070 0.666172 -0.002976
-0.002976 0.784070 -0.002976
0.131323 0.784070 -0.002976
0.261350 0.784070 -0.002976
0.390171 0.784070 -0.002976
0.514135 0.784070 -0.002976
0.576155 0.784070 -0.002976
0.666172 0.784070 -0.002976
0.784070 0.784070 -0.002976
-0.002976 -0.002976 0.131323
0.131323 -0.002976 0.131323
0.261350 -0.002976 0.131323
0.390171 -0.002976 0.131323
0.514135 -0.002976 0.131323
0.576155 -0.002976 0.131323
0.666172 -0.002976 0.131323
0.784070 -0.002976 0.131323
-0.002976 0.131323 0.131323
0.131323 0.131323 0.131323
0.261350 0.131323 0.131323
0.390171 0.131323 0.131323
0.514135 0.131323 0.131323
0.576155 0.131323 0.131323
0.666172 0.131323 0.131323
0.784070 0.131323 0.131323
-0.002976 0.261350 0.131323
0.131323 0.261350 0.131323
0.261350 0.261350 0.131323
0.390171 0.261350 0.131323
0.514135 0.261350 0.131323
0.576155 0.261350 0.131323
0.666172 0.261350 0.131323
0.784070 0.261350 0.131323
-0.002976 0.390171 0.131323
0.131323 0.390171 0.131323
0.261350 0.390171 0.131323
0.390171 0.390171 0.131323
0.514135 0.390171 0.131323
0.576155 0.390171 0.131323
0.666172 0.390171 0.131323
0.784070 0.390171 0.131323
-0.002976 0.514135 0.131323
0.131323 0.514135 0.131323
0.261350 0.514135 0.131323
0.390171 0.514135 0.131323
0.514135 0.514135 0.131323
0.576155 0.514135 0.131323
0.666172 0.514135 0.131323
0.784070 0.514135 0.131323
-0.002976 0.576155 0.131323
0.131323 0.576155 0.131323
0.261350 0.576155 0.131323
0.390171 0.576155 0.131323
0.514135 0.576155 0.131323
0.576155 0.576155 0.131323
0.666172 0.576155 0.131323
0.784070 0.576155 0.131323
-0.002976 0.666172 0.131323
0.131323 0.666172 0.131323
0.261350 0.666172 0.131323
0.390171 0.666172 0.131323
0.514135 0.666172 0.131323
0.576155 0.666172 0.131323
0.666172 0.666172 0.131323
0.784070 0.666172 0.131323
-0.002976 0.784070 0.131323
0.131323 0.784070 0.131323
0.261350 0.784070 0.131323
0.390171 0.784070 0.131323
0.514135 0.784070 0.131323
0.576155 0.784070 0.131323
0.666172 0.784070 0.131323
0.784070 0.784070 0.131323
-0.002976 -0.002976 0.261350
0.131323 -0.002976 0.261350
0.261350 -0.002976 0.261350
0.390171 -0.002976 0.261350
0.514135 -0.002976 0.261350
0.576155 -0.002976 0.261350
0.666172 -0.002976 0.261350
0.784070 -0.002976 0.261350
-0.002976 0.131323 0.261350
0.131323 0.131323 0.261350
0.261350 0.131323 0.261350
0.390171 0.131323 0.261350
0.514135 0.131323 0.261350
0.576155 0.131323 0.261350
0.666172 0.131323 0.261350
0.784070 0.131323 0.261350
-0.002976 0.261350 0.261350
0.131323 0.261350 0.261350
0.261350 0.261350 0.261350
0.390171 0.261350 0.261350
0.514135 0.261350 0.261350
0.576155 0.261350 0.261350
0.666172 0.261350 0.261350
0.784070 0.261350 0.261350
-0.002976 0.390171 0.261350
0.131323 0.390171 0.261350
0.261350 0.390171 0.261350
0.390171 0.390171 0.261350
0.514135 0.390171 0.261350
0.576155 0.390171 0.261350
0.666172 0.390171 0.261350
0.784070 0.390171 0.261350
-0.002976 0.514135 0.261350
0.131323 0.514135 0.261350
0.261350 0.514135 0.261350
0.390171 0.514135 0.261350
0.514135 0.514135 0.261350
0.576155 0.514135 0.261350
0.666172 0.514135 0.261350
0.784070 0.514135 0.261350
-0.002976 0.576155 0.261350
0.131323 0.576155 0.261350
0.261350 0.576155 0.261350
0.390171 0.576155 0.261350
0.514135 0.576155 0.261350
0.576155 0.576155 0.261350
0.666172 0.576155 0.261350
0.784070 0.576155 0.261350
-0.002976 0.666172 0.261350
0.131323 0.666172 0.261350
0.261350 0.666172 0.261350
0.390171 0.666172 0.261350
0.514135 0.666172 0.261350
0.576155 0.666172 0.261350
0.666172 0.666172 0.261350
0.784070 0.666172 0.261350
-0.002976 0.784070 0.261350
0.131323 0.784070 0.261350
0.261350 0.784070 0.261350
0.390171 0.784070 0.261350
0.514135 0.784070 0.261350
0.576155 0.784070 0.261350
0.666172 0.784070 0.261350
0.784070 0.784070 0.261350
-0.002976 -0.002976 0.390171
0.131323 -0.002976 0.390171
0.261350 -0.002976 0.390171
0.390171 -0.002976 0.390171
0.514135 -0.002976 0.390171
0.576155 -0.002976 0.390171
0.666172 -0.002976 0.390171
0.784070 -0.002976 0.390171
-0.002976 0.131323 0.390171
0.131323 0.131323 0.390171
0.261350 0.131323 0.390171
0.390171 0.131323 0.390171
0.514135 0.131323 0.390171
0.576155 0.131323 0.390171
0.666172 0.131323 0.390171
0.784070 0.131323 0.390171
-0.002976 0.261350 0.390171
0.131323 0.261350 0.390171
0.261350 0.261350 0.390171
0.390171 0.261350 0.390171
0.514135 0.261350 0.390171
0.576155 0.261350 0.390171
0.666172 0.261350 0.390171
0.784070 0.261350 0.390171
-0.002976 0.390171 0.390171
0.131323 0.390171 0.390171
0.261350 0.390171 0.390171
0.390171 0.390171 0.390171
0.514135 0.390171 0.390171
0.576155 0.390171 0.390171
0.666172 0.390171 0.390171
0.784070 0.390171 0.390171
-0.002976 0.514135 0.390171
0.131323 0.514135 0.390171
0.261350 0.514135 0.390171
0.390171 0.514135 0.390171
0.514135 0.514135 0.390171
0.576155 0.514135 0.390171
0.666172 0.514135 0.390171
0.784070 0.514135 0.390171
-0.002976 0.576155 0.390171
0.131323 0.576155 0.390171
0.261350 0.576155 0.390171
0.390171 0.576155 0.390171
0.514135 0.576155 0.390171
0.576155 0.576155 0.390171
0.666172 0.576155 0.390171
0.784070 0.576155 0.390171
-0.002976 0.666172 0.390171
0.131323 0.666172 0.390171
0.261350 0.666172 0.390171
0.390171 0.666172 0.390171
0.514135 0.666172 0.390171
0.576155 0.666172 0.390171
0.666172 0.666172 0.390171
0.784070 0.666172 0.390171
-0.002976 0.784070 0.390171
0.131323 0.784070 0.390171
0.261350 0.784070 0.390171
0.390171 0.784070 0.390171
0.514135 0.784070 0.390171
0.576155 0.784070 0.390171
0.666172 0.784070 0.390171
0.784070 0.784070 0.390171
-0.002976 -0.002976 0.514135
0.131323 -0.002976 0.514135
0.261350 -0.002976 0.514135
0.390171 -0.002976 0.514135
0.514135 -0.002976 0.514135
0.576155 -0.002976 0.514135
0.666172 -0.002976 0.514135
0.784070 -0.002976 0.514135
-0.002976 0.131323 0.514135
0.131323 0.131323 0.514135
0.261350 0.131323 0.514135
0.390171 0.131323 0.514135
0.514135 0.131323 0.514135
0.576155 0.131323 0.514135
0.666172 0.131323 0.514135
0.784070 0.131323 0.514135
-0.002976 0.261350 0.514135
0.131323 0.261350 0.514135
0.261350 0.261350 0.514135
0.390171 0.261350 0.514135
0.514135 0.261350 0.514135
0.576155 0.261350 0.514135
0.666172 0.261350 0.514135
0.784070 0.261350 0.514135
-0.002976 0.390171 0.514135
0.131323 0.390171 0.514135
0.261350 0.390171 0.514135
0.390171 0.390171 0.514135
0.514135 0.390171 0.514135
0.576155 0.390171 0.514135
0.666172 0.390171 0.514135
0.784070 0.390171 0.514135
-0.002976 0.514135 0.514135
0.131323 0.514135 0.514135
0.261350 0.514135 0.514135
0.390171 0.514135 0.514135
0.514135 0.514135 0.514135
0.576155 0.514135 0.514135
0.666172 0.514135 0.514135
0.784070 0.514135 0.514135
-0.002976 0.576155 0.514135
0.131323 0.576155 0.514135
0.261350 0.576155 0.514135
0.390171 0.576155 0.514135
0.514135 0.576155 0.514135
0.576155 0.576155 0.514135
0.666172 0.576155 0.514135
0.784070 0.576155 0.514135
-0.002976 0.666172 0.514135
0.131323 0.666172 0.514135
0.261350 0.666172 0.514135
0.390171 0.666172 0.514135
0.514135 0.666172 0.514135
0.576155 0.666172 0.514135
0.666172 0.666172 0.514135
0.784070 0.666172 0.514135
-0.002976 0.784070 0.514135
0.131323 0.784070 0.514135
0.261350 0.784070 0.514135
0.390171 0.784070 0.514135
0.514135 0.784070 0.514135
0.576155 0.784070 0.514135
0.666172 0.784070 0.514135
0.784070 0.784070 0.514135
-0.002976 -0.002976 0.576155
0.131323 -0.002976 0.576155
0.261350 -0.002976 0.576155
0.390171 -0.002976 0.576155
0.514135 -0.002976 0.576155
0.576155 -0.002976 0.576155
0.666172 -0.002976 0.576155
0.784070 -0.002976 0.576155
-0.002976 0.131323 0.576155
0.131323 0.131323 0.576155
0.261350 0.131323 0.576155
0.390171 0.131323 0.576155
0.514135 0.131323 0.576155
0.576155 0.131323 0.576155
0.666172 0.131323 0.576155
0.784070 0.131323 0.576155
-0.002976 0.261350 0.576155
0.131323 0.261350 0.576155
0.261350 0.261350 0.576155
0.390171 0.261350 0.576155
0.514135 0.261350 0.576155
0.576155 0.261350 0.576155
0.666172 0.261350 0.576155
0.784070 0.261350 0.576155
-0.002976 0.390171 0.576155
0.131323 0.390171 0.576155
0.261350 0.390171 0.576155
0.390171 0.390171 0.576155
0.514135 0.390171 0.576155
0.576155 0.390171 0.576155
0.666172 0.390171 0.576155
0.784070 0.390171 0.576155
-0.002976 0.514135 0.576155
0.131323 0.514135 0.576155
0.261350 0.514135 0.576155
0.390171 0.514135 0.576155
0.514135 0.514135 0.576155
0.576155 0.514135 0.576155
0.666172 0.514135 0.576155
0.784070 0.514135 0.576155
-0.002976 0.576155 0.576155
0.131323 0.576155 0.576155
0.261350 0.576155 0.576155
0.390171 0.576155 0.576155
0.514135 0.576155 0.576155
0.576155 0.576155 0.576155
0.666172 0.576155 0.576155
0.784070 0.576155 0.576155
-0.002976 0.666172 0.576155
0.131323 0.666172 0.576155
0.261350 0.666172 0.576155
0.390171 0.666172 0.576155
0.514135 0.666172 0.576155
0.576155 0.666172 0.576155
0.666172 0.666172 0.576155
0.784070 0.666172 0.576155
-0.002976 0.784070 0.576155
0.131323 0.784070 0.576155
0.261350 0.784070 0.576155
0.390171 0.784070 0.576155
0.514135 0.784070 0.576155
0.576155 0.784070 0.576155
0.666172 0.784070 0.576155
0.784070 0.784070 0.576155
-0.002976 -0.002976 0.666172
0.131323 -0.002976 0.666172
0.261350 -0.002976 0.666172
0.390171 -0.002976 0.666172
0.514135 -0.002976 0.666172
0.576155 -0.002976 0.666172
0.666172 -0.002976 0.666172
0.784070 -0.002976 0.666172
-0.002976 0.131323 0.666172
0.131323 0.131323 0.666172
0.261350 0.131323 0.666172
0.390171 0.131323 0.666172
0.514135 0.131323 0.666172
0.576155 0.131323 0.666172
0.666172 0.131323 0.666172
0.784070 0.131323 0.666172
-0.002976 0.261350 0.666172
0.131323 0.261350 0.666172
0.261350 0.261350 0.666172
0.390171 0.261350 0.666172
0.514135 0.261350 0.666172
0.576155 0.261350 0.666172
0.666172 0.261350 0.666172
0.784070 0.261350 0.666172
-0.002976 0.390171 0.666172
0.131323 0.390171 0.666172
0.261350 0.390171 0.666172
0.390171 0.390171 0.666172
0.514135 0.390171 0.666172
0.576155 0.390171 0.666172
0.666172 0.390171 0.666172
0.784070 0.390171 0.666172
-0.002976 0.514135 0.666172
0.131323 0.514135 0.666172
0.261350 0.514135 0.666172
0.390171 0.514135 0.666172
0.514135 0.514135 0.666172
0.576155 0.514135 0.666172
0.666172 0.514135 0.666172
0.784070 0.514135 0.666172
-0.002976 0.576155 0.666172
0.131323 0.576155 0.666172
0.261350 0.576155 0.666172
0.390171 0.576155 0.666172
0.514135 0.576155 0.666172
0.576155 0.576155 0.666172
0.666172 0.576155 0.666172
0.784070 0.576155 0.666172
-0.002976 0.666172 0.666172
0.131323 0.666172 0.666172
0.261350 0.666172 0.666172
0.390171 0.666172 0.666172
0.514135 0.666172 0.666172
0.576155 0.666172 0.666172
0.666172 0.666172 0.666172
0.784070 0.666172 0.666172
-0.002976 0.784070 0.666172
0.131323 0.784070 0.666172
0.261350 0.784070 0.666172
0.390171 0.784070 0.666172
0.514135 0.784070 0.666172
0.576155 0.784070 0.666172
0.666172 0.784070 0.666172
0.784070 0.784070 0.666172
-0.002976 -0.002976 0.784070
0.131323 -0.002976 0.784070
0.261350 -0.002976 0.784070
0.390171 -0.002976 0.784070
0.514135 -0.002976 0.784070
0.576155 -0.002976 0.784070
0.666172 -0.002976 0.784070
0.784070 -0.002976 0.784070
-0.002976 0.131323 0.784070
0.131323 0.131323 0.784070
0.261350 0.131323 0.784070
0.390171 0.131323 0.784070
0.514135 0.131323 0.784070
0.576155 0.131323 0.784070
0.666172 0.131323 0.784070
0.784070 0.131323 0.784070
-0.002976 0.261350 0.784070
0.131323 0.261350 0.784070
0.261350 0.261350 0.784070
0.390171 0.261350 0.784070
0.514135 0.261350 0.784070
0.576155 0.261350 0.784070
0.666172 0.261350 0.784070
0.784070 0.261350 0.784070
-0.002976 0.390171 0.784070
0.131323 0.390171 0.784070
0.261350 0.390171 0.784070
0.390171 0.390171 0.784070
0.514135 0.390171 0.784070
0.576155 0.390171 0.784070
0.666172 0.390171 0.784070
0.784070 0.390171 0.784070
-0.002976 0.514135 0.784070
0.131323 0.514135 0.784070
0.261350 0.514135 0.784070
0.390171 0.514135 0.784070
0.514135 0.514135 0.784070
0.576155 0.514135 0.784070
0.666172 0.514135 0.784070
0.784070 0.514135 0.784070
-0.002976 0.576155 0.784070
0.131323 0.576155 0.784070
0.261350 0.576155 0.784070
0.390171 0.576155 0.784070
0.514135 0.576155 0.784070
0.576155 0.576155 0.784070
0.666172 0.576155 0.784070
0.784070 0.576155 0.784070
-0.002976 0.666172 0.784070
0.131323 0.666172 0.784070
0.261350 0.666172 0.784070
0.390171 0.666172 0.784070
0.514135 0.666172 0.784070
0.576155 0.666172 0.784070
0.666172 0.666172 0.784070
0.784070 0.666172 0.784070
-0.002976 0.784070 0.784070
0.131323 0.784070 0.784070
0.261350 0.784070 0.784070
0.390171 0.784070 0.784070
0.514135 0.784070 0.784070
0.576155 0.784070 0.784070
0.666172 0.784070 0.784070
0.784070 0.784070 0.784070
