ocio2-v01-lin_sRGB-BUCK/LUTs/softRolloff_v03_ocioLogLin_linLog_1Dlog.cube
TITLE "Generated by Foundry::LUT"
LUT_3D_SIZE 5
DOMAIN_MIN 0.000000 0.000000 0.000000
DOMAIN_MAX 0.903226 0.903226 0.903226
-0.002976 -0.002976 -0.002976
0.229098 -0.002976 -0.002976
0.453847 -0.002976 -0.002976
0.594587 -0.002976 -0.002976
0.784070 -0.002976 -0.002976
-0.002976 0.229098 -0.002976
0.229098 0.229098 -0.002976
0.453847 0.229098 -0.002976
0.594587 0.229098 -0.002976
0.784070 0.229098 -0.002976
-0.002976 0.453847 -0.002976
0.229098 0.453847 -0.002976
0.453847 0.453847 -0.002976
0.594587 0.453847 -0.002976
0.784070 0.453847 -0.002976
-0.002976 0.594587 -0.002976
0.229098 0.594587 -0.002976
0.453847 0.594587 -0.002976
0.594587 0.594587 -0.002976
0.784070 0.594587 -0.002976
-0.002976 0.784070 -0.002976
0.229098 0.784070 -0.002976
0.453847 0.784070 -0.002976
0.594587 0.784070 -0.002976
0.784070 0.784070 -0.002976
-0.002976 -0.002976 0.229098
0.229098 -0.002976 0.229098
0.453847 -0.002976 0.229098
0.594587 -0.002976 0.229098
0.784070 -0.002976 0.229098
-0.002976 0.229098 0.229098
0.229098 0.229098 0.229098
0.453847 0.229098 0.229098
0.594587 0.229098 0.229098
0.784070 0.229098 0.229098
-0.002976 0.453847 0.229098
0.229098 0.453847 0.229098
0.453847 0.453847 0.229098
0.594587 0.453847 0.229098
0.784070 0.453847 0.229098
-0.002976 0.594587 0.229098
0.229098 0.594587 0.229098
0.453847 0.594587 0.229098
0.594587 0.594587 0.229098
0.784070 0.594587 0.229098
-0.002976 0.784070 0.229098
0.229098 0.784070 0.229098
0.453847 0.784070 0.229098
0.594587 0.784070 0.229098
0.784070 0.784070 0.229098
-0.002976 -0.002976 0.453847
0.229098 -0.002976 0.453847
0.453847 -0.002976 0.453847
0.594587 -0.002976 0.453847
0.784070 -0.002976 0.453847
-0.002976 0.229098 0.453847
0.229098 0.229098 0.453847
0.453847 0.229098 0.453847
0.594587 0.229098 0.453847
0.784070 0.229098 0.453847
-0.002976 0.453847 0.453847
0.229098 0.453847 0.453847
0.453847 0.453847 0.453847
0.594587 0.453847 0.453847
0.784070 0.453847 0.453847
-0.002976 0.594587 0.453847
0.229098 0.594587 0.453847
0.453847 0.594587 0.453847
0.594587 0.594587 0.453847
0.784070 0.594587 0.453847
-0.002976 0.784070 0.453847
0.229098 0.784070 0.453847
0.453847 0.784070 0.453847
0.594587 0.784070 0.453847
0.784070 0.784070 0.453847
-0.002976 -0.002976 0.594587
0.229098 -0.002976 0.594587
0.453847 -0.002976 0.594587
0.594587 -0.002976 0.594587
0.784070 -0.002976 0.594587
-0.002976 0.229098 0.594587
0.229098 0.229098 0.594587
0.453847 0.229098 0.594587
0.594587 0.229098 0.594587
0.784070 0.229098 0.594587
-0.002976 0.453847 0.594587
0.229098 0.453847 0.594587
0.453847 0.453847 0.594587
0.594587 0.453847 0.594587
0.784070 0.453847 0.594587
-0.002976 0.594587 0.594587
0.229098 0.594587 0.594587
0.453847 0.594587 0.594587
0.594587 0.594587 0.594587
0.784070 0.594587 0.594587
-0.002976 0.784070 0.594587
0.229098 0.784070 0.594587
0.453847 0.784070 0.594587
0.594587 0.784070 0.594587
0.784070 0.784070 0.594587
-0.002976 -0.002976 0.784070
0.229098 -0.002976 0.784070
0.453847 -0.002976 0.784070
0.594587 -0.002976 0.784070
0.784070 -0.002976 0.784070
-0.002976 0.229098 0.784070
0.229098 0.229098 0.784070
0.453847 0.229098 0.784070
0.594587 0.229098 0.784070
0.784070 0.229098 0.784070
-0.002976 0.453847 0.784070
0.229098 0.453847 0.784070
0.453847 0.453847 0.784070
0.594587 0.453847 0.784070
0.784070 0.453847 0.784070
-0.002976 0.594587 0.784070
0.229098 0.594587 0.784070
0.453847 0.594587 0.784070
0.594587 0.594587 0.784070
0.784070 0.594587 0.784070
-0.002976 0.784070 0.784070
0.229098 0.784070 0.784070
0.453847 0.784070 0.784070
0.594587 0.784070 0.784070
0.784070 0.784070 0.784070
